!!!ONB: MCCC : IEG0086_04 : Extracted Monophonic Melody
!!!COM: Grieg, Edvard
!!!OPR: Piano Sonata
!!!OMV: 4
!!!SCT: Op.7
!!!ODT: 1865///
**kern
*staff1
*IPiano
=1
*clefF4
*k[f#]
*G:
*M6/8
8B
8r
8F#
8B
8r
8r
=2
4.ee[
4ee]
8r
=3
8B
8r
8F#
8B
8r
8r
=4
4.gg[
4gg]
8r
=5
8B
8r
8F#
8B
8r
8r
=6
4.ff#[
4ff#]
8r
=7
8e
16r
16e
8e
8f#
8g
8a
=8
4.b
8e
8r
8e
=9
8.f#
16a
8g
8f#
16f#
16a
16cc
16ee
=10
4.ee[
4ee]
8e
=11
8a
16r
16a
8a
8b
8cc
8dd
=12
4.ee
8a
8r
8a
=13
8.b
16dd
8cc
8b
16b
16dd
16ff
16aa
=14
4.aa[
4aa]
8a
=15
8dd
16r
16dd
8dd
8ee
8ff
8gg
=16
8aa
16r
16aa
8aa
8gg
8ff
8ee
=17
8dd#
16r
16dd#
8dd#
8ee
8ff#
8gg
=18
8aa
16r
16aa
8aa
8gg
8ff#
8ee
=19
8r
16aa
16dd#
8aa
8r
16aa
16dd#
8aa
=20
8r
16aa
16dd#
8aa
8r
16aa
16dd#
8aa
=21
8r
16aa#
16ee
8aa#
8r
16aa#
16ee
8aa#
=22
8r
16aa#
16ee
8aa#
8r
16bb
16ee
8bb
=23
8eee
16r
16ee
8ee
8ff#
8gg
8aa
=24
8bb
16r
16bb
8bb
8aa
8gg
8ff#
=25
8ee
16r
16e
8e
8f#
8g
8a
=26
8b
16r
16b
8b
8a
8g
8f#
=27
8e
16r
16ee
8ee
8ee
8ee
8ee
=28
8dd
16r
16dd
8dd
8dd
8dd
8dd
=29
8cc
16r
16cc
8cc
8cc
8cc
8cc
=30
8b
16r
16b
8b
8b
8b
8b
=31
8a
16r
16a
8a
8cc
8dd#
8ee
=32
8g
16r
16g
8g
8b
8dd#
8ee
=33
8d#
.
8e
8f#
8d#
=34
4.b
8a
8b
8g#
=35
4.ee
8ee
8ff#
8dd#
=36
16aa#
16bb
16gg
16ee
8b
16ddd#
16eee
16ccc#
16aa#
8ee
=37
16ggg#
16aaa
16fff#
16ddd#
8aa
16bbb
16cccc
16aaa
16eee
8ccc
=38
16bbb
16aaa
16ggg
16fff#
16eee
16ddd#
16eee
16ddd
16ccc
16bb
16aa
16gg
=39
16ff#
16gg
16aa
16gg
16ff#
16ee
16dd#
16cc
16b
16a
16g
16f#
=40
8ee
16r
16g
8ee
4r
8r
=41
8b
16r
16d#
8b
4r
8r
=42
8g
16r
16B
8g
4r
8r
=43
8f#
16r
16B
8f#
4r
8r
=44
8e
16r
16G
8e
4r
8r
=45
8e
16r
16G
8e
4r
8r
=46
8e
8r
8r
4r
8r
=47
8e
8r
8r
4.g
=48
2.cc
=49
4.b[
4b]
8a
=50
4.b
4.g
=51
2.a
=52
2.g
=53
4.cc[
4cc]
8b
=54
8dd
16r
16dd
8g
4r
8r
=55
8b
16r
16b
8d
4r
8r
=56
8g
16r
16g
8B
8r
4r
=57
8r
8r
4.g
=58
2.cc
=59
4.b[
4b]
8a
=60
4.b
4.g
=61
4.a
4b
8cc
=62
[2.a
=63
2.a]
=64
8bb
16r
16bb
8ee
4r
8r
=65
8gg#
16r
16gg#
8b
4r
8r
=66
8ee
16r
16ee
8g#
4r
8r
=67
8b
8r
8r
4e
8r
=68
2.ee
=69
4.gg#[
4gg#]
8bb
=70
4.bb
4aa
8ff
=71
4ee
8r
8r
=72
2.a
=73
4.cc#[
4cc#]
8ee
=74
4.ee
4dd
8b-
=75
4.a
4.dd
=76
2.dd
=77
4.gg[
4gg]
8bb
=78
4.bb
4aa
8gg
=79
4.b
4.cc#
=80
2.dd
=81
2.dd
=82
8g
8f#
8g
8f#
8g
8f#
=83
8g
8f#
8g
8f#
8g
8g#
=84
8a
8g#
8a
8g#
8a
8g#
=85
2.dd
=86
2.g
=87
2.f
=88
2.e
=89
2.a
=90
[4g
8g]
8f#
8d
8f#
=91
4g
8r
4.a
=92
[4g
8g]
8f#
8d
8f#
=93
4g
8r
4.a
=94
8g
8r
8r
16aa-
16gg
16ff#
16ff
16ee
16ee-
=95
16dd
16cc#
16cc
16b
16b-
16a
16a-
16g
16f#
16f
16e
16e-
=96
16d
16c#
16c
16B
16c
16c#
16d
16c#
16c
16B
16c
16c#
=97
16d
16c#
16c
16B
16c
16c#
8d
8r
8g
=98
2.cc
=99
4.b[
4b]
8a
=100
4.b
4.g
=101
4.cc
4.ee
=102
4.gg
4r
8r
=103
4.gg
4r
8r
=104
8r
8r
8g
8r
8r
=105
2.cc
=106
4.b[
4b]
8a
=107
4b
8r
4g
8r
=108
4cc
8r
4ee
8r
=109
4gg
8r
4g
8r
=110
4gg
8r
4g
8r
=111
4gg
8r
4g
8r
=112
4gg
8r
4g
8r
=113
8ccc
16r
16ccc
8ee
8r
4r
=114
8gg
16r
16gg
8cc
8r
4r
=115
8ee
16r
16ee
8g
8r
4r
=116
8cc
16r
16cc
8e
8r
4r
=117
4g
8r
4r
8r
=118
4e
8r
4r
8r
=119
8r
4r
8r
=120
2.r
=121
8cc
16r
16cc
8cc
8dd
8ee-
8ff
=122
4.gg[
8gg]
8r
8r
=123
8c
16r
16c
8c
8d
8e-
8f
=124
4.g[
8g]
8r
8r
=125
8C
16r
16C
8C
8D
8E-
8F
=126
2.G
=127
2.A-
=128
2.A
=129
8gg
16r
16gg
8gg
8aa
8bb-
8ccc
=130
4.ddd[
8ddd]
8r
8r
=131
8g
16r
16g
8g
8a
8b-
8cc
=132
4.dd[
8dd]
8r
8r
=133
8G
16r
16G
8G
8A
8B-
8c
=134
2.d
=135
2.e[
=136
2.e]
=137
8dd
16r
16dd
8dd
8ee
8ff
8gg
=138
8aa
16r
16aa
8dd
8gg#
16r
16gg#
8dd
=139
8cc
16r
16cc
8cc
8dd
8ee-
8ff
=140
8gg
16r
16gg
8cc
8ff#
16r
16ff#
8cc
=141
8b-
16r
16b-
8b-
8cc
8dd-
8ee-
=142
8ff
16r
16ff
8b-
8ee
16r
16ee
8b-
=143
8aa-
16r
16aa-
8dd-
8ddd-
16r
16ddd-
8ff
=144
8ccc
16r
16ccc
8ff
8bb
16r
16bb
8ff
=145
8gg
16r
16gg
8aa
8gg
16r
16gg
8aa
=146
8gg
16r
16gg
8aa
8gg
16r
16gg
8aa
=147
16bb-
16ccc
16gg
16ee-
8eee-
16bb-
16ccc
16gg
16ee-
8eee-
=148
16bb-
16ccc
16gg
16ee-
8eee-
16bb-
16ccc
16gg
16ee-
8eee-
=149
8ccc
16r
16ccc
8ddd
8ccc
16r
16ccc
8ddd
=150
8ccc
16r
16ccc
8ddd
8ccc
16r
16ccc
8ddd
=151
16eee-
16fff
16ccc
16aa-
8aaa-
16eee-
16fff
16ccc
16aa-
8aaa-
=152
16eee-
16fff
16ccc
16aa-
8aaa-
16eee-
16fff
16ccc
16aa-
8aaa-
=153
8ggg
16r
16ggg
8ccc
8ggg
16r
16ggg
8ccc
=154
8fff#
16r
16fff#
8ccc
8fff#
16r
16fff#
8ccc
=155
8ggg
16r
16ggg
8ccc
8ggg
16r
16ggg
8ccc
=156
8fff#
16r
16fff#
8ccc
8fff#
16r
16fff#
8ccc
=157
8ggg
16r
16ggg
8ccc
8ggg
16r
16ggg
8ccc
=158
8ggg
16r
16ggg
8ccc
8ggg
16r
16ggg
8ccc
=159
8fff#
16r
16fff#
8ccc
8fff#
16r
16fff#
8ccc
=160
8fff#
16r
16fff#
8ccc
8fff#
16r
16fff#
8ccc
=161
8ggg
16r
16gg
8gg
8aa
8bb-
8ccc
=162
8ddd
16r
16ddd
8ddd
8ccc
8bb-
8aa
=163
8gg
16r
16g
8g
8a
8b-
8cc
=164
8dd
16r
16dd
8dd
8cc
8b-
8a
=165
16g
16a
16g
16d
8B-
16b-
16cc
16b-
16g
8d
=166
16a
16b-
16a
16g
8c#
16ee
16ff
16ee
16b-
8g
=167
16dd
16ee
16dd
16a
8f
16ff
16gg
16ff
16dd
8a
=168
16ee
16ff
16ee
16dd
8g#
16bb
16ccc
16bb
16ff
8dd
=169
8aa
16r
16aa
8aa
8bb
8ccc
8ddd
=170
8eee
16r
16eee
8eee
8ddd
8ccc
8bb
=171
8aa
16r
16a
8a
8b
8cc
8dd
=172
8ee
16r
16ee
8ee
8dd
8cc
8b
=173
16a
16b
16a
16e
8c
16cc
16dd
16cc
16a
8e
=174
16b
16cc
16b
16a
8d#
16ff#
16gg
16ff#
16cc
8a
=175
16ee
16ff#
16ee
16b
8g
16bb
16ccc
16bb
16ff#
8dd
=176
16eee
16fff#
16eee
16bb
8gg
16aa#
16bb
16aa#
16ff#
8a#
=177
8bb
16r
16b
8b
8cc
8cc#
8dd
=178
8dd#
8ee
8ee#
8ff#
8gg
8aa
=179
8aa#
16r
16aa#
8aa#
8aa#
8aa#
8aa#
=180
8aa#
8aa#
8aa#
8aa#
8aa#
8aa#
=181
4.bb
4.aa
=182
4.gg#
4gg
8ff#
=183
2.aa#[
=184
4.aa#]
4.eee
=185
8ddd#
8r
8r
16aa
16bb
16aa
16ff#
8cc
=186
16gg
16aa
16gg
16ee
8b
16ff#
16gg
16ff#
16dd#
8a
=187
16ee
16ff#
16ee
16b
8g
16dd
16ee
16dd
16a
8f
=188
16cc#
16dd
16cc#
16a
8e
16cc
16dd
16cc
16g
8e
=189
16b
16cc
16b
16f#
8d#
16a
16b
16a
16f#
8c
=190
16g
16a
16g
16e
8B
16f#
16g
16f#
16d#
8A
=191
16e
16f#
16e
16B
8G
16d
16e
16d
16B
8F
=192
16c#
16d
16c#
16A
8E
16c
16d
16c
16G
8E
=193
16B
16c
16B
16F#
8D#
4.e
=194
16B
16c
16B
16F#
8D#
4.e
=195
16B
16c
16B
16F#
8D#
4r
8r
=196
4.c[
4c]
8r
=197
16c#
16d
16c#
16B-
8E
4r
8r
=198
4.d[
4d]
8r
=199
16d#
16e
16d#
16c
8F#
4r
8r
=200
16f#
16g
16f#
16d#
8A
4r
8r
=201
16a
16b
16a
16g
8c
4r
8r
=202
4c
8r
4c#
8r
=203
4d
8r
4d#
8r
=204
8e
16r
16e
8e
8f#
8g
8a
=205
4.b
8e
8r
8e
=206
8.f#
16a
8g
8f#
16f#
16a
16cc
16ee
=207
4.ee[
4ee]
8e
=208
8a
16r
16a
8a
8b
8cc
8dd
=209
4.ee
8a
8r
8a
=210
8.b
16dd
8cc
8b
16b
16dd
16ff
16aa
=211
4.aa[
4aa]
8a
=212
8dd
16r
16dd
8dd
8ee
8ff
8gg
=213
8aa
16r
16aa
8aa
8gg
8ff
8ee
=214
8dd#
16r
16dd#
8dd#
8ee
8ff#
8gg
=215
8aa
16r
16aa
8aa
8gg
8ff#
8ee
=216
8r
16aa
16dd#
8aa
8r
16aa
16dd#
8aa
=217
8r
16aa
16dd#
8aa
8r
16aa
16dd#
8aa
=218
8r
16aa#
16ee
8aa#
8r
16aa#
16ee
8aa#
=219
8r
16aa#
16ee
8aa#
8r
16bb
16ee
8bb
=220
8eee
16r
16ee
8ee
8ff#
8gg
8aa
=221
8bb
16r
16bb
8bb
8aa
8gg
8ff#
=222
8ee
16r
16e
8e
8f#
8g
8a
=223
8b
16r
16b
8b
8a
8g
8f#
=224
8e
16r
16ee
8ee
8ee
8ee
8ee
=225
8dd
16r
16dd
8dd
8dd
8dd
8dd
=226
8cc
16r
16cc
8cc
8cc
8cc
8cc
=227
8b
16r
16b
8b
8b
8b
8b
=228
8a
16r
16a
8a
8cc
8dd#
8ee
=229
8g
16r
16g
8g
8b
8dd#
8ee
=230
8d#
.
8e
8f#
8d#
=231
4.b
8a
8b
8g#
=232
4.ee
8ee
8ff#
8dd#
=233
16aa#
16bb
16gg
16ee
8b
16ddd#
16eee
16ccc#
16aa#
8ee
=234
16ggg#
16aaa
16fff#
16ddd#
8aa
16bbb
16cccc
16aaa
16eee
8ccc
=235
16bbb
16aaa
16ggg
16fff#
16eee
16ddd#
16eee
16ddd
16ccc
16bb
16aa
16gg
=236
16ff#
16gg
16aa
16gg
16ff#
16ee
16dd#
16cc
16b
16a
16g
16f#
=237
8ee
16r
16g
8ee
4r
8r
=238
8b
16r
16d#
8b
4r
8r
=239
8g
16r
16B
8g
4r
8r
=240
8f#
16r
16B
8f#
4r
8r
=241
8e
16r
16G
8e
4r
8r
=242
8e
16r
16G
8e
4r
8r
=243
8e
8r
8r
4r
8r
=244
8e
8r
8r
*k[f#c#g#d#]
*E:
4.b
=245
2.ee
=246
4.dd#[
4dd#]
8cc#
=247
4.dd#
4.b
=248
2.cc#
=249
2.b
=250
4.ee[
4ee]
8dd#
=251
8ff#
16r
16ff#
8b
4r
8r
=252
8dd#
16r
16dd#
8f#
4r
8r
=253
8b
16r
16b
8d#
4r
8r
=254
8f#
8r
8r
4.b
=255
2.ee
=256
4.dd#[
4dd#]
8cc#
=257
4.dd#
4.b
=258
4.cc#
4dd#
8ee
=259
[2.cc#
=260
2.cc#]
=261
8ddd#
16r
16ddd#
8gg#
4r
8r
=262
8bb#
16r
16bb#
8dd#
4r
8r
=263
8gg#
16r
16gg#
8b#
4r
8r
=264
8dd#
8r
8r
=265
2.g#
=266
4.b#[
4b#]
8dd#
=267
4.dd#
4cc#
8a
=268
4g#
8r
4.c#
=269
2.cc#
=270
4.ee#[
4ee#]
8gg#
=271
4.gg#
4ff#
8dd
=272
4.cc#
4.ff#
=273
2.ff#
=274
4.bb[
4bb]
8ddd#
=275
4.ddd#
4ccc#
8bb
=276
4.dd#
4.ee#
=277
2.ff#
=278
2.ff#
=279
8b
8a#
8b
8a#
8b
8a#
=280
8b
8a#
8b
8a#
8b
8b#
=281
8cc#
8b#
8cc#
8b#
8cc#
8b#
=282
2.ff#
=283
2.b
=284
2.a
=285
2.g#
=286
2.cc#
=287
[4b
8b]
8a#
8f#
8a#
=288
4b
8r
4.cc#
=289
[4b
8b]
8a#
8f#
8a#
=290
4b
8r
4.cc#
=291
8b
8r
8r
16ccc
16bb
16aa#
16aa
16gg#
16gg
=292
16ff#
16ff
16ee
16dd#
16dd
16cc#
16cc
16b
16a#
16a
16g#
16g
=293
16f#
16f
16e
16d#
16e
16f
16f#
16f
16e
16d#
16e
16f
=294
16f#
16f
16e
16d#
16e
16f
8f#
8r
8b
=295
2.ee
=296
4.dd#[
4dd#]
8cc#
=297
4.dd#
4.b
=298
4.ee
4.gg#
=299
4.bb
4r
8r
=300
4.bb
4r
8r
=301
8r
8r
8b
8r
8r
=302
2.ee
=303
4.dd#
8.dd#
8.cc#
=304
4dd#
8r
4b
8r
=305
4ee
8r
4gg#
8r
=306
4bb
8r
4b
8r
=307
4bb
8r
4b
8r
=308
4bb
8r
4b
8r
=309
4bb
8r
4b
8r
=310
4.eee[
4.eee]
=311
4.ddd#[
4ddd#]
8ccc#
=312
4.ddd#
4bb
8r
=313
4.ddd[
4.ddd]
=314
4.ccc[
4.ccc]
=315
4.bb[
4.bb]
=316
4.ee[
4ee]
8ee
=317
4.b
4.b
=318
4.cc#[
4cc#]
8dd#
=319
4.dd#[
4.dd#]
=320
4.bb[
4bb]
8aa
=321
4.gg#
4.ff#
=322
8eee
16r
16eee
8gg#
4r
8r
=323
8ddd#
16r
16ddd#
8gg#
4r
8ccc#
=324
8ddd#
16r
16ddd#
8gg
4bb
8r
=325
8ddd
16r
16ddd
8gg
4r
8r
=326
8ccc
16r
16ccc
8ee
4r
8bb
=327
8bb
16r
16bb
8dd#
4r
8r
=328
8ee
16r
16ee
8g#
4ff#
8gg#
=329
8aa
16r
16aa
8cc#
4r
8gg#
=330
8gg#
16r
16gg#
8b
4ff#
8ee
=331
8eee
16r
16eee
8gg#
4r
8r
=332
8bb
16r
16bb
8ee
4r
8r
=333
8gg#
16r
16gg#
8b
4r
8r
=334
8ee
16r
16ee
8g#
4r
8r
=335
8b
16r
16b
8e
4r
8r
=336
8g#
16r
16g#
8B
4r
8r
=337
8e
8r
8r
8ee
8r
8r
=338
4r
8r
4eee
8r
=339
4r
8r
4eeee
8r
=340
2.E
==
*-
